!!!COM: Mozart, Wolfgang Amadeus
!!!OTL: Musikalische Würfelspiele, Kontre-Tänze
!!!SCA: K<sup>6</sup> Anh. C30.01 (K<sup>3</sup> Anh. 294d)
**kern	**kern
*staff2	*staff2
*clefF4	*clefG2
*M2/4	*M2/4
*MM110	*MM110
*>[A,A1,A,A2,B]	*>[A,A1,A,A2,B]
*>norep[A,A2,B]	*>norep[A,A2,B]
*>A	*>A
=33	=33
4C	16cc
.	16c
.	16e
.	16g
4C	16cc
.	16ee
.	16gg
.	16ccc
=81	=81
4C	8cc
.	8g
4r	8cc
.	8ee
=57	=57
8G	8ff
16GG	8ff
16AA	.
16BB	8dd
16C	.
16D	8dd
16BB	.
=15	=15
4C	16cc
.	16ee
.	16gg
.	16ee
4C	8cc
.	8cc
=111	=111
4D	8d
.	16f#
.	16a
4D	8dd
.	8ff#
=27	=27
4BB 4G	16aaQ
.	16gg
.	16ff#
.	16gg
4BB	16dd
.	16gg
.	16dd
.	16b
=23	=23
4C	16ee
.	16cc
.	16ee
.	16cc
4D	8a
.	8ff#
=11	=11
*>A1	*>A1
4GG	4g 4b 4gg
16G	4r
16F	.
16E	.
16D	.
=11:|!	=11:|!
*>A2	*>A2
4GG	4g 4b 4gg
16GG	4r
16AA	.
16BB	.
16C#	.
=61||	=61||
*>B	*>B
16D	8dd
16F#	.
16A	8dd
16F#	.
8D	8ff#
8C	8aa
=157	=157
4G	16gg
.	16aa
.	16bb
.	16ccc
4GG	4ddd
=26	=26
4C	8ee
.	8cc
4C	8gg
.	8ee
=84	=84
16GG	8dd
16BB	.
16D	8b
16G	.
16GG	4g
16F	.
16E	.
16D	.
=94	=94
16C	8cc
16E	.
16G	8ee
16E	.
16C	8gg
16E	.
16G	8ee
16E	.
=80	=80
4C	8cc
.	8ee
4r	8ee
.	8ee
=159	=159
4G	8dd
.	4ff
4GG	.
.	16dd
.	16b
=65	=65
4C	8cc
.	8cc
4CC	4cc
==	==
*-	*-
